src/components/atoms/Icon/svgs/pen-tool.svg

<svg viewBox="0 0 24 24" fill="none" xmlns="http://www.w3.org/2000/svg">
    <path d="M12 19l7-7 3 3-7 7-3-3z" stroke="currentColor" stroke-width="2" stroke-linecap="round" stroke-linejoin="round"/>
    <path d="M18 13l-1.5-7.5L2 2l3.5 14.5L13 18l5-5z" stroke="currentColor" stroke-width="2" stroke-linecap="round" stroke-linejoin="round"/>
    <path d="M2 2l7.586 7.586" stroke="currentColor" stroke-width="2"/>
    <circle cx="11" cy="11" r="2" stroke="currentColor" stroke-width="2"/>
</svg>

<svg width="24" height="24" viewBox="0 0 24 24" fill="none" xmlns="http://www.w3.org/2000/svg">
    <path d="M12 19L19 12L22 15L15 22L12 19Z" stroke="currentColor" stroke-width="2" stroke-linecap="round"
        stroke-linejoin="round" />
    <path d="M18 13L16.5 5.5L2 2L5.5 16.5L13 18L18 13Z" stroke="currentColor" stroke-width="2" stroke-linecap="round"
        stroke-linejoin="round" />
    <path d="M2 2L9.58579 9.58579" stroke="currentColor" stroke-width="2" />
    <circle cx="11" cy="11" r="2" stroke="currentColor" stroke-width="2" />
</svg>
